docs/assets/images/components/alert/alert-icon-white.svg

<svg fill="none" height="88" viewBox="0 0 88 88" width="88" xmlns="http://www.w3.org/2000/svg" xmlns:xlink="http://www.w3.org/1999/xlink"><mask id="a" height="88" maskUnits="userSpaceOnUse" width="88" x="0" y="0"><circle cx="44" cy="44" fill="#fff" r="44"/></mask><circle cx="44" cy="44" fill="#fff" r="44"/><g mask="url(#a)"><path d="m95.668 82.3343-23.4084-71.9362 16.3022-11.70302-1.2308-1.69508-126.331 90.9768 145.281.0232v-5.6657z" fill="#000"/><path d="m33.9423 79.1067c-7.0133 0-12.7028-7.9645-12.7028-17.7402s5.6895-17.7403 12.7028-17.7403c6.99 0 12.7027 7.9646 12.7027 17.7403s-5.7127 17.7402-12.7027 17.7402z" fill="#fff"/><path d="m64.2013 72.0942c-7.2919 0-13.2369-8.3593-13.2369-18.6227 0-10.2633 5.945-18.6226 13.2369-18.6226s13.2369 8.3593 13.2369 18.6226c0 10.2634-5.945 18.6227-13.2369 18.6227z" fill="#fff"/><g fill="#000"><path d="m36.6825 47.7361c-2.8099 0-5.0625 3.1348-5.0625 6.9893 0 3.8546 2.2758 6.9893 5.0625 6.9893 2.81 0 5.0626-3.1347 5.0626-6.9893 0-3.8777-2.2758-6.9893-5.0626-6.9893z"/><path d="m66.4307 38.3088c-2.9261 0-5.2948 3.2508-5.2948 7.2447s2.3687 7.2447 5.2948 7.2447 5.2948-3.2508 5.2948-7.2447-2.3687-7.2447-5.2948-7.2447z"/></g></g></svg>

<svg width="88" height="88" viewBox="0 0 88 88" fill="none" xmlns="http://www.w3.org/2000/svg">
<circle cx="44" cy="44" r="44" fill="white"/>
<mask id="mask0" mask-type="alpha" maskUnits="userSpaceOnUse" x="0" y="0" width="88" height="88">
<circle cx="44" cy="44" r="44" fill="white"/>
</mask>
<g mask="url(#mask0)">
<path d="M95.668 82.3343L72.2596 10.3981L88.5618 -1.30492L87.331 -3L-39 87.9768L106.281 88V82.3343H95.668Z" fill="black"/>
<path d="M33.9423 79.1067C26.929 79.1067 21.2395 71.1422 21.2395 61.3665C21.2395 51.5908 26.929 43.6262 33.9423 43.6262C40.9323 43.6262 46.645 51.5908 46.645 61.3665C46.645 71.1422 40.9323 79.1067 33.9423 79.1067Z" fill="white"/>
<path d="M64.2013 72.0942C56.9094 72.0942 50.9644 63.7349 50.9644 53.4715C50.9644 43.2082 56.9094 34.8489 64.2013 34.8489C71.4932 34.8489 77.4382 43.2082 77.4382 53.4715C77.4382 63.7349 71.4932 72.0942 64.2013 72.0942Z" fill="white"/>
<path d="M36.6825 47.7361C33.8726 47.7361 31.62 50.8709 31.62 54.7254C31.62 58.58 33.8958 61.7147 36.6825 61.7147C39.4925 61.7147 41.7451 58.58 41.7451 54.7254C41.7451 50.8477 39.4693 47.7361 36.6825 47.7361Z" fill="black"/>
<path d="M66.4307 38.3088C63.5046 38.3088 61.1359 41.5596 61.1359 45.5535C61.1359 49.5474 63.5046 52.7982 66.4307 52.7982C69.3568 52.7982 71.7255 49.5474 71.7255 45.5535C71.7255 41.5596 69.3568 38.3088 66.4307 38.3088Z" fill="black"/>
</g>
</svg>
